static/img/Inst.svg

<svg width="40" height="40" viewBox="0 0 40 40" fill="none" xmlns="http://www.w3.org/2000/svg">
<path d="M25.4031 9.6875H14.5969C11.8906 9.6875 9.6875 11.8906 9.6875 14.5969V25.4031C9.6875 28.1094 11.8906 30.3125 14.5969 30.3125H25.4031C28.1094 30.3125 30.3125 28.1094 30.3125 25.4031V14.5969C30.3125 11.8906 28.1094 9.6875 25.4031 9.6875ZM20 26.4219C16.4594 26.4219 13.5781 23.5406 13.5781 20C13.5781 16.4594 16.4594 13.5781 20 13.5781C23.5406 13.5781 26.4219 16.4594 26.4219 20C26.4219 23.5406 23.5406 26.4219 20 26.4219ZM26.5969 14.8906C25.7688 14.8906 25.0969 14.2188 25.0969 13.3891C25.0969 12.5609 25.7688 11.8891 26.5969 11.8891C27.4266 11.8891 28.0984 12.5609 28.0984 13.3891C28.0984 14.2188 27.4266 14.8906 26.5969 14.8906ZM20 15.7656C17.6656 15.7656 15.7656 17.6656 15.7656 20C15.7656 22.3344 17.6656 24.2344 20 24.2344C22.3344 24.2344 24.2344 22.3344 24.2344 20C24.2344 17.6656 22.3344 15.7656 20 15.7656ZM20 0C8.95469 0 0 8.95469 0 20C0 31.0453 8.95469 40 20 40C31.0453 40 40 31.0453 40 20C40 8.95469 31.0453 0 20 0ZM32.5 25.4031C32.5 29.3156 29.3156 32.5 25.4031 32.5H14.5969C10.6844 32.5 7.5 29.3156 7.5 25.4031V14.5969C7.5 10.6844 10.6844 7.5 14.5969 7.5H25.4031C29.3156 7.5 32.5 10.6844 32.5 14.5969V25.4031Z" fill="white"/>
</svg>

<svg xmlns="http://www.w3.org/2000/svg" width="40" height="40" fill="none"><path fill="#fff" d="M25.403 9.688H14.597a4.916 4.916 0 0 0-4.91 4.909v10.806a4.916 4.916 0 0 0 4.91 4.91h10.806a4.916 4.916 0 0 0 4.91-4.91V14.597a4.916 4.916 0 0 0-4.91-4.91M20 26.422A6.43 6.43 0 0 1 13.578 20 6.43 6.43 0 0 1 20 13.578 6.43 6.43 0 0 1 26.422 20 6.43 6.43 0 0 1 20 26.422m6.597-11.531a1.5 1.5 0 1 1 .001-3.002 1.5 1.5 0 0 1-.001 3.002M20 15.766A4.24 4.24 0 0 0 15.766 20 4.24 4.24 0 0 0 20 24.234 4.24 4.24 0 0 0 24.234 20 4.24 4.24 0 0 0 20 15.766M20 0C8.955 0 0 8.955 0 20s8.955 20 20 20 20-8.955 20-20S31.045 0 20 0m12.5 25.403c0 3.913-3.184 7.097-7.097 7.097H14.597c-3.913 0-7.097-3.184-7.097-7.097V14.597c0-3.913 3.184-7.097 7.097-7.097h10.806c3.913 0 7.097 3.184 7.097 7.097z"/></svg>
